icon/pk/cattle.svg

<svg viewBox="0 0 48 48" fill="none" xmlns="http://www.w3.org/2000/svg" height="1em" width="1em">
  <path d="M11.4651 19.9231C10.6818 12.4814 16.5167 6 23.9995 6C31.4823 6 37.3173 12.4814 36.5339 19.9231L35.0464 34.055C34.4513 39.7083 29.6841 44 23.9995 44C18.315 44 13.5478 39.7083 12.9527 34.0549L11.4651 19.9231Z" fill="#2F88FF" stroke="black" stroke-width="4"/>
  <path d="M13.9995 31C17.4916 27.8746 25.4281 23.8297 33.9995 31" stroke="white" stroke-width="4" stroke-linecap="round" stroke-linejoin="round"/>
  <circle cx="18.9995" cy="18" r="2" fill="white"/>
  <circle cx="20.9995" cy="34" r="2" fill="white"/>
  <circle cx="28.9995" cy="18" r="2" fill="white"/>
  <circle cx="26.9995" cy="34" r="2" fill="white"/>
  <path d="M33 7.91262C35.1667 5.91262 40.3923 2.30498 43 4.91262C45.6077 7.5203 43 9.9126 41 10.4126C38.5 11.0376 36.8 12.7128 36 13.9128" stroke="black" stroke-width="4" stroke-linecap="round" stroke-linejoin="round"/>
  <path d="M15.0962 7.91262C12.9295 5.91262 7.70391 2.30498 5.09619 4.91262C2.48848 7.5203 5.09619 9.9126 7.09619 10.4126C9.59619 11.0376 11.2962 12.7128 12.0962 13.9128" stroke="black" stroke-width="4" stroke-linecap="round" stroke-linejoin="round"/>
  <path d="M12 25L13 34.5" stroke="black" stroke-width="4"/>
  <path d="M36 25L35 34.5" stroke="black" stroke-width="4"/>
</svg>

<svg width="48" height="48" fill="none" xmlns="http://www.w3.org/2000/svg"><path d="M11.465 19.923C10.682 12.481 16.517 6 24 6c7.482 0 13.317 6.481 12.534 13.923l-1.488 14.132a11.108 11.108 0 0 1-22.093 0l-1.488-14.132Z" fill="#2F88FF" stroke="#000" stroke-width="4"/><path d="M14 31c3.492-3.125 11.428-7.17 20 0" stroke="#fff" stroke-width="4" stroke-linecap="round" stroke-linejoin="round"/><circle cx="19" cy="18" r="2" fill="#fff"/><circle cx="21" cy="34" r="2" fill="#fff"/><circle cx="29" cy="18" r="2" fill="#fff"/><circle cx="27" cy="34" r="2" fill="#fff"/><path d="M33 7.913c2.167-2 7.392-5.608 10-3 2.608 2.607 0 5-2 5.5-2.5.625-4.2 2.3-5 3.5M15.096 7.913c-2.166-2-7.392-5.608-10-3-2.608 2.607 0 5 2 5.5 2.5.625 4.2 2.3 5 3.5" stroke="#000" stroke-width="4" stroke-linecap="round" stroke-linejoin="round"/><path d="m12 25 1 9.5M36 25l-1 9.5" stroke="#000" stroke-width="4"/></svg>
